modules/hawcons-stroke/icons/icon-135-pen-angled.svg

<?xml version="1.0" encoding="UTF-8" standalone="no"?>
<svg width="32px" height="32px" viewBox="0 0 32 32" version="1.1" xmlns="http://www.w3.org/2000/svg" xmlns:xlink="http://www.w3.org/1999/xlink" xmlns:sketch="http://www.bohemiancoding.com/sketch/ns">
    <!-- Generator: Sketch 3.0.3 (7891) - http://www.bohemiancoding.com/sketch -->
    <title>icon 135 pen angled</title>
    <desc>Created with Sketch.</desc>
    <defs></defs>
    <g id="Page-1" stroke="none" stroke-width="1" fill="none" fill-rule="evenodd" sketch:type="MSPage">
        <g id="icon-135-pen-angled" sketch:type="MSArtboardGroup" fill="#929292">
            <path d="M22.4432278,12.1503345 L11.1570131,23.4499064 L11.1570131,23.4499064 L8.55144652,20.8443397 L19.8435383,9.55064513 L22.4432278,12.1503345 L22.4432278,12.1503345 Z M23.1499164,11.4428096 L24.8790954,9.71158405 C25.269069,9.32114892 25.266195,8.68650423 24.8743,8.29568497 L23.6944866,7.11910998 C23.3018646,6.72756564 22.6692577,6.72452466 22.2779126,7.11592531 L20.5505949,8.84348817 L23.1499164,11.4428096 L23.1499164,11.4428096 Z M7.9037061,21.6108129 L7.26416016,24.7235103 L10.3990645,24.1061713 L7.9037061,21.6108129 L7.9037061,21.6108129 L7.9037061,21.6108129 Z M7,21 L6,26 L11,25 L25.5801067,10.4198932 C26.3642921,9.63570785 26.3661881,8.36618809 25.5897496,7.58974962 L24.4102504,6.41025036 C23.6313906,5.6313906 22.372781,5.62721897 21.5801067,6.41989327 L7,21 L7,21 Z" id="pen-angled" sketch:type="MSShapeGroup"></path>
        </g>
    </g>
</svg>

<svg width="32" height="32" xmlns="http://www.w3.org/2000/svg"><path d="M22.443 12.15l-11.286 11.3-2.606-2.606L19.844 9.551l2.6 2.6zm.707-.707l1.73-1.731c.39-.39.386-1.025-.006-1.416l-1.18-1.177a1.001 1.001 0 0 0-1.416-.003L20.55 8.843l2.599 2.6zM7.904 21.61l-.64 3.113 3.135-.618-2.495-2.495zM7 21l-1 5 5-1 14.58-14.58a2.003 2.003 0 0 0 .01-2.83l-1.18-1.18a1.994 1.994 0 0 0-2.83.01L7 21z" fill="#929292" fill-rule="evenodd"/></svg>
